src/Assets/Icon/logo.svg

<?xml version="1.0" encoding="UTF-8" standalone="no"?>
<svg
   xmlns:dc="http://purl.org/dc/elements/1.1/"
   xmlns:cc="http://creativecommons.org/ns#"
   xmlns:rdf="http://www.w3.org/1999/02/22-rdf-syntax-ns#"
   xmlns:svg="http://www.w3.org/2000/svg"
   xmlns="http://www.w3.org/2000/svg"
   xmlns:sodipodi="http://sodipodi.sourceforge.net/DTD/sodipodi-0.dtd"
   xmlns:inkscape="http://www.inkscape.org/namespaces/inkscape"
   id="Layer_1_1_"
   enable-background="new 0 0 64 64"
   height="512px"
   viewBox="0 0 64 64"
   width="512px"
   class=""
   version="1.1"
   sodipodi:docname="logo.svg"
   inkscape:version="0.92.4 (5da689c313, 2019-01-14)">
  <metadata
     id="metadata33">
    <rdf:RDF>
      <cc:Work
         rdf:about="">
        <dc:format>image/svg+xml</dc:format>
        <dc:type
           rdf:resource="http://purl.org/dc/dcmitype/StillImage" />
        <dc:title></dc:title>
      </cc:Work>
    </rdf:RDF>
  </metadata>
  <defs
     id="defs31" />
  <sodipodi:namedview
     pagecolor="#ffffff"
     bordercolor="#666666"
     borderopacity="1"
     objecttolerance="10"
     gridtolerance="10"
     guidetolerance="10"
     inkscape:pageopacity="0"
     inkscape:pageshadow="2"
     inkscape:window-width="1920"
     inkscape:window-height="1017"
     id="namedview29"
     showgrid="false"
     inkscape:zoom="0.4609375"
     inkscape:cx="256"
     inkscape:cy="256"
     inkscape:window-x="-8"
     inkscape:window-y="-8"
     inkscape:window-maximized="1"
     inkscape:current-layer="Layer_1_1_" />
  <g
     id="g26">
    <path
       d="m56 27.99999c0-15.34004-13.28478-27.57718-28.977-25.83429-12.04351 1.33764-21.68598 11.10579-22.88941 23.16345-.66052 6.61804 1.16566 12.78944 4.65358 17.69903 3.50479 4.93333 5.21283 10.92025 5.21283 16.9718v.00001h25v-5h13v-13h7z"
       fill="#50b6cf"
       data-original="#50B6CF"
       class=""
       style="fill:#1877F2"
       data-old_color="#50b6cf"
       id="path2" />
    <path
       d="m7.43213 15.10468c-1.76898 3.07983-2.93109 6.54297-3.29852 10.22443-.66052 6.6181 1.16565 12.78949 4.65356 17.69904 3.50476 4.93334 5.21283 10.92028 5.21283 16.97179v.00006 2h25v-7h13v-3.76062c-20.9151-4.7016-37.66168-18.41553-44.56787-36.1347z"
       fill="#3cadc9"
       data-original="#3CADC9"
       class=""
       style="fill:#0F68DC"
       data-old_color="#3cadc9"
       id="path4" />
    <path
       d="m36.91101 25.26715c.05274-.41595.08899-.83691.08899-1.26715s-.03625-.8512-.08899-1.26715l-2.21887-.91022c-.17145-.60681-.40918-1.18488-.71112-1.72388l.92316-2.20874c-.52008-.67181-1.12231-1.27399-1.79413-1.79407l-2.20874.9231c-.539-.30194-1.11713-.53967-1.72394-.71118l-.91022-2.21887c-.41595-.05274-.83691-.08899-1.26715-.08899s-.8512.03625-1.26715.08899l-.91022 2.21887c-.60681.17145-1.18488.40924-1.72388.71112l-2.20868-.92316c-.67181.52008-1.27405 1.12225-1.79419 1.79407l.92316 2.20886c-.30194.539-.53967 1.11707-.71118 1.72388l-2.21887.91022c-.05274.41595-.08899.83691-.08899 1.26715s.03625.85126.08899 1.26715l2.21881.91016c.17151.60681.4093 1.18488.71118 1.72388l-.92316 2.20874c.52008.67181 1.12231 1.27399 1.79407 1.79413l2.2088-.9231c.539.30188 1.11707.53961 1.72394.71118l.91022 2.21887c.41595.05274.83691.08899 1.26715.08899s.8512-.03625 1.26715-.08899l.91022-2.21887c.60681-.17145 1.18488-.40918 1.72388-.71112l2.20874.92316c.67181-.52014 1.27405-1.12231 1.79413-1.79413l-.92316-2.2088c.30194-.539.53967-1.11707.71118-1.72388zm-9.91101 2.73285c-2.20917 0-4-1.79089-4-4 0-2.20917 1.79083-4 4-4s4 1.79083 4 4c0 2.20911-1.79083 4-4 4z"
       fill="#e34e4b"
       data-original="#E34E4B"
       class="active-path"
       style="fill:#FF4500"
       data-old_color="#e34e4b"
       id="path6" />
    <g
       fill="#223b5a"
       id="g22">
      <path
         d="m35 55h4v2h-4z"
         data-original="#223B5A"
         class=""
         id="path8" />
      <path
         d="m11.5752 28.26611c-.38184-1.38232-.5752-2.81787-.5752-4.26611 0-8.82227 7.17773-16 16-16h10v2h-10c-7.71973 0-14 6.28027-14 14 0 1.26855.16895 2.5249.50293 3.73389z"
         data-original="#223B5A"
         class=""
         id="path10" />
      <path
         d="m27.01367 40c-.00488 0-.00977 0-.01465 0-.88086 0-1.76562-.07275-2.62891-.21582l.32617-1.97266c.75977.12598 1.54005.15772 2.31642.18848.46777 0 .93945-.02393 1.4043-.0708l.20117 1.99023c-.53223.05323-1.07129.08057-1.6045.08057zm3.70508-.43506-.46289-1.94531c1.20996-.28809 2.37793-.73828 3.4707-1.33838l.96289 1.75293c-1.25097.68652-2.58593 1.20166-3.9707 1.53076zm-8.42676-.26904c-1.36035-.41846-2.66016-1.01855-3.86328-1.78369l1.07422-1.6875c1.05176.66895 2.1875 1.19385 3.37695 1.55908zm14.19434-2.40918-1.1875-1.60938c1.00195-.73877 1.90332-1.60889 2.67871-2.58643l1.56641 1.24316c-.88477 1.11573-1.91309 2.1089-3.05762 2.95265zm-19.77735-.63428c-1.09082-.91699-2.05371-1.97412-2.86426-3.14258l1.64453-1.13965c.70801 1.02295 1.55176 1.94824 2.50684 2.75098zm24.04395-4.07275-1.7168-1.02441c.6377-1.07031 1.12988-2.22119 1.46094-3.42139l1.92773.53223c-.3789 1.37304-.9414 2.68993-1.67187 3.91357zm-28.00195-.89698c-.49316-.96289-.88867-1.97754-1.17578-3.0166l1.92773-.53223c.25098.9082.59668 1.79492 1.02734 2.63672z"
         data-original="#223B5A"
         class=""
         id="path12" />
      <path
         d="m34.70703 12.70703-1.41406-1.41406 2.29297-2.29297-2.29297-2.29297 1.41406-1.41406 3.70703 3.70703z"
         data-original="#223B5A"
         class=""
         id="path14" />
      <path
         d="m23 55h2v2h-2z"
         data-original="#223B5A"
         class=""
         id="path16" />
      <path
         d="m27 55h2v2h-2z"
         data-original="#223B5A"
         class=""
         id="path18" />
      <path
         d="m31 55h2v2h-2z"
         data-original="#223B5A"
         class=""
         id="path20" />
    </g>
    <path
       d="m33 24c0 3.31371-2.68629 6-6 6s-6-2.68629-6-6 2.68629-6 6-6 6 2.68629 6 6zm-6-4c-2.20914 0-4 1.79086-4 4s1.79086 4 4 4 4-1.79086 4-4-1.79086-4-4-4z"
       fill="#de4542"
       data-original="#DE4542"
       class=""
       id="path24" />
  </g>
  <text
     xml:space="preserve"
     style="font-style:normal;font-weight:normal;font-size:7.84810591px;line-height:1.25;font-family:sans-serif;letter-spacing:0px;word-spacing:0px;fill:#ff4500;fill-opacity:1;stroke:none;stroke-width:0.19620265"
     x="17.853922"
     y="48.251163"
     id="text855"
     transform="scale(0.9583131,1.0435003)"><tspan
       sodipodi:role="line"
       x="0"
       y="0"
       id="tspan853"
       style="font-style:normal;font-variant:normal;font-weight:normal;font-stretch:normal;font-size:7.84816694px;font-family:'Arial Rounded MT Bold';-inkscape-font-specification:'Arial Rounded MT Bold, Normal';font-variant-ligatures:normal;font-variant-caps:normal;font-variant-numeric:normal;font-feature-settings:normal;text-align:start;writing-mode:lr-tb;text-anchor:start;stroke-width:0.19620265"><tspan
         x="17.853922"
         y="48.251163"
         id="tspan851"
         style="font-style:normal;font-variant:normal;font-weight:normal;font-stretch:normal;font-size:7.84816694px;font-family:'Arial Rounded MT Bold';-inkscape-font-specification:'Arial Rounded MT Bold, Normal';font-variant-ligatures:normal;font-variant-caps:normal;font-variant-numeric:normal;font-feature-settings:normal;text-align:start;writing-mode:lr-tb;text-anchor:start;stroke-width:0.19620265" /></tspan></text>
</svg>

<?xml version="1.0" encoding="UTF-8" standalone="no"?>
<svg
   xmlns:dc="http://purl.org/dc/elements/1.1/"
   xmlns:cc="http://creativecommons.org/ns#"
   xmlns:rdf="http://www.w3.org/1999/02/22-rdf-syntax-ns#"
   xmlns:svg="http://www.w3.org/2000/svg"
   xmlns="http://www.w3.org/2000/svg"
   xmlns:sodipodi="http://sodipodi.sourceforge.net/DTD/sodipodi-0.dtd"
   xmlns:inkscape="http://www.inkscape.org/namespaces/inkscape"
   id="Layer_1_1_"
   enable-background="new 0 0 64 64"
   height="50"
   viewBox="0 0 6.25 6.25"
   width="50"
   class=""
   version="1.1"
   sodipodi:docname="logo.svg"
   inkscape:version="0.92.4 (5da689c313, 2019-01-14)">
  <metadata
     id="metadata33">
    <rdf:RDF>
      <cc:Work
         rdf:about="">
        <dc:format>image/svg+xml</dc:format>
        <dc:type
           rdf:resource="http://purl.org/dc/dcmitype/StillImage" />
        <dc:title></dc:title>
      </cc:Work>
    </rdf:RDF>
  </metadata>
  <defs
     id="defs31" />
  <sodipodi:namedview
     pagecolor="#ffffff"
     bordercolor="#666666"
     borderopacity="1"
     objecttolerance="10"
     gridtolerance="10"
     guidetolerance="10"
     inkscape:pageopacity="0"
     inkscape:pageshadow="2"
     inkscape:window-width="1920"
     inkscape:window-height="1017"
     id="namedview29"
     showgrid="false"
     inkscape:zoom="3.6875"
     inkscape:cx="94.009421"
     inkscape:cy="-4.3946289"
     inkscape:window-x="1912"
     inkscape:window-y="-8"
     inkscape:window-maximized="1"
     inkscape:current-layer="Layer_1_1_" />
  <g
     id="g26"
     transform="matrix(0.09214168,0,0,0.09214168,0.24160695,0.1643344)">
    <path
       d="M 56,27.99999 C 56,12.65995 42.71522,0.42281 27.023,2.1657 14.97949,3.50334 5.33702,13.27149 4.13359,25.32915 3.47307,31.94719 5.29925,38.11859 8.78717,43.02818 12.29196,47.96151 14,53.94843 14,59.99998 v 10e-6 h 25 v -5 h 13 v -13 h 7 z"
       data-original="#50B6CF"
       class=""
       style="fill:#1877f2"
       data-old_color="#50b6cf"
       id="path2"
       inkscape:connector-curvature="0" />
    <path
       d="M 7.43213,15.10468 C 5.66315,18.18451 4.50104,21.64765 4.13361,25.32911 3.47309,31.94721 5.29926,38.1186 8.78717,43.02815 12.29193,47.96149 14,53.94843 14,59.99994 V 60 62 H 39 V 55 H 52 V 51.23938 C 31.0849,46.53778 14.33832,32.82385 7.43213,15.10468 Z"
       data-original="#3CADC9"
       class=""
       style="fill:#0f68dc"
       data-old_color="#3cadc9"
       id="path4"
       inkscape:connector-curvature="0" />
    <path
       d="M 36.91101,25.26715 C 36.96375,24.8512 37,24.43024 37,24 37,23.56976 36.96375,23.1488 36.91101,22.73285 l -2.21887,-0.91022 c -0.17145,-0.60681 -0.40918,-1.18488 -0.71112,-1.72388 l 0.92316,-2.20874 C 34.3841,17.2182 33.78187,16.61602 33.11005,16.09594 l -2.20874,0.9231 c -0.539,-0.30194 -1.11713,-0.53967 -1.72394,-0.71118 L 28.26715,14.08899 C 27.8512,14.03625 27.43024,14 27,14 c -0.43024,0 -0.8512,0.03625 -1.26715,0.08899 l -0.91022,2.21887 c -0.60681,0.17145 -1.18488,0.40924 -1.72388,0.71112 l -2.20868,-0.92316 c -0.67181,0.52008 -1.27405,1.12225 -1.79419,1.79407 l 0.92316,2.20886 c -0.30194,0.539 -0.53967,1.11707 -0.71118,1.72388 l -2.21887,0.91022 C 17.03625,23.1488 17,23.56976 17,24 c 0,0.43024 0.03625,0.85126 0.08899,1.26715 l 2.21881,0.91016 c 0.17151,0.60681 0.4093,1.18488 0.71118,1.72388 l -0.92316,2.20874 c 0.52008,0.67181 1.12231,1.27399 1.79407,1.79413 l 2.2088,-0.9231 c 0.539,0.30188 1.11707,0.53961 1.72394,0.71118 l 0.91022,2.21887 C 26.1488,33.96375 26.56976,34 27,34 c 0.43024,0 0.8512,-0.03625 1.26715,-0.08899 l 0.91022,-2.21887 c 0.60681,-0.17145 1.18488,-0.40918 1.72388,-0.71112 l 2.20874,0.92316 c 0.67181,-0.52014 1.27405,-1.12231 1.79413,-1.79413 l -0.92316,-2.2088 c 0.30194,-0.539 0.53967,-1.11707 0.71118,-1.72388 z M 27,28 c -2.20917,0 -4,-1.79089 -4,-4 0,-2.20917 1.79083,-4 4,-4 2.20917,0 4,1.79083 4,4 0,2.20911 -1.79083,4 -4,4 z"
       data-original="#E34E4B"
       class="active-path"
       style="fill:#ff4500"
       data-old_color="#e34e4b"
       id="path6"
       inkscape:connector-curvature="0" />
    <g
       id="g22"
       style="fill:#223b5a">
      <path
         d="m 35,55 h 4 v 2 h -4 z"
         data-original="#223B5A"
         class=""
         id="path8"
         inkscape:connector-curvature="0" />
      <path
         d="M 11.5752,28.26611 C 11.19336,26.88379 11,25.44824 11,24 11,15.17773 18.17773,8 27,8 h 10 v 2 H 27 c -7.71973,0 -14,6.28027 -14,14 0,1.26855 0.16895,2.5249 0.50293,3.73389 z"
         data-original="#223B5A"
         class=""
         id="path10"
         inkscape:connector-curvature="0" />
      <path
         d="m 27.01367,40 c -0.0049,0 -0.0098,0 -0.01465,0 -0.88086,0 -1.76562,-0.07275 -2.62891,-0.21582 l 0.32617,-1.97266 c 0.75977,0.12598 1.54005,0.15772 2.31642,0.18848 0.46777,0 0.93945,-0.02393 1.4043,-0.0708 l 0.20117,1.99023 C 28.08594,39.97266 27.54688,40 27.01367,40 Z m 3.70508,-0.43506 -0.46289,-1.94531 c 1.20996,-0.28809 2.37793,-0.73828 3.4707,-1.33838 l 0.96289,1.75293 c -1.25097,0.68652 -2.58593,1.20166 -3.9707,1.53076 z M 22.29199,39.2959 c -1.36035,-0.41846 -2.66016,-1.01855 -3.86328,-1.78369 l 1.07422,-1.6875 c 1.05176,0.66895 2.1875,1.19385 3.37695,1.55908 z m 14.19434,-2.40918 -1.1875,-1.60938 c 1.00195,-0.73877 1.90332,-1.60889 2.67871,-2.58643 l 1.56641,1.24316 c -0.88477,1.11573 -1.91309,2.1089 -3.05762,2.95265 z M 16.70898,36.25244 c -1.09082,-0.91699 -2.05371,-1.97412 -2.86426,-3.14258 l 1.64453,-1.13965 c 0.70801,1.02295 1.55176,1.94824 2.50684,2.75098 z m 24.04395,-4.07275 -1.7168,-1.02441 c 0.6377,-1.07031 1.12988,-2.22119 1.46094,-3.42139 l 1.92773,0.53223 c -0.3789,1.37304 -0.9414,2.68993 -1.67187,3.91357 z M 12.75098,31.28271 c -0.49316,-0.96289 -0.88867,-1.97754 -1.17578,-3.0166 l 1.92773,-0.53223 c 0.25098,0.9082 0.59668,1.79492 1.02734,2.63672 z"
         data-original="#223B5A"
         class=""
         id="path12"
         inkscape:connector-curvature="0" />
      <path
         d="M 34.70703,12.70703 33.29297,11.29297 35.58594,9 33.29297,6.70703 34.70703,5.29297 38.41406,9 Z"
         data-original="#223B5A"
         class=""
         id="path14"
         inkscape:connector-curvature="0" />
      <path
         d="m 23,55 h 2 v 2 h -2 z"
         data-original="#223B5A"
         class=""
         id="path16"
         inkscape:connector-curvature="0" />
      <path
         d="m 27,55 h 2 v 2 h -2 z"
         data-original="#223B5A"
         class=""
         id="path18"
         inkscape:connector-curvature="0" />
      <path
         d="m 31,55 h 2 v 2 h -2 z"
         data-original="#223B5A"
         class=""
         id="path20"
         inkscape:connector-curvature="0" />
    </g>
    <path
       d="m 33,24 c 0,3.31371 -2.68629,6 -6,6 -3.31371,0 -6,-2.68629 -6,-6 0,-3.31371 2.68629,-6 6,-6 3.31371,0 6,2.68629 6,6 z m -6,-4 c -2.20914,0 -4,1.79086 -4,4 0,2.20914 1.79086,4 4,4 2.20914,0 4,-1.79086 4,-4 0,-2.20914 -1.79086,-4 -4,-4 z"
       data-original="#DE4542"
       class=""
       id="path24"
       inkscape:connector-curvature="0"
       style="fill:#de4542" />
  </g>
  <text
     xml:space="preserve"
     style="font-style:normal;font-weight:normal;font-size:0.72313768px;line-height:1.25;font-family:sans-serif;letter-spacing:0px;word-spacing:0px;fill:#ff4500;fill-opacity:1;stroke:none;stroke-width:0.01807844"
     x="1.8972074"
     y="4.6034274"
     id="text855"
     transform="scale(0.9583131,1.0435003)"><tspan
       sodipodi:role="line"
       x="-0.14149156"
       y="-0.19491114"
       id="tspan853"
       style="font-style:normal;font-variant:normal;font-weight:normal;font-stretch:normal;font-size:0.72314328px;font-family:'Arial Rounded MT Bold';-inkscape-font-specification:'Arial Rounded MT Bold, Normal';font-variant-ligatures:normal;font-variant-caps:normal;font-variant-numeric:normal;font-feature-settings:normal;text-align:start;writing-mode:lr-tb;text-anchor:start;stroke-width:0.01807844"><tspan
         x="1.8972074"
         y="4.6034274"
         id="tspan851"
         style="font-style:normal;font-variant:normal;font-weight:normal;font-stretch:normal;font-size:0.72314328px;font-family:'Arial Rounded MT Bold';-inkscape-font-specification:'Arial Rounded MT Bold, Normal';font-variant-ligatures:normal;font-variant-caps:normal;font-variant-numeric:normal;font-feature-settings:normal;text-align:start;writing-mode:lr-tb;text-anchor:start;stroke-width:0.01807844" /></tspan></text>
</svg>
